X: 5
T: Victory Song
C: Anon.
%%abc-version 2.0
%%abcx-abcm2ps-target-version 5.9.1 (29 Sep 2008)
%%abc-creator hum2abc beta
%%abcx-conversion-date 2020/08/10 20:56:09
%%abc-copyright Electronic Copyright 2000 David Huron
%%abc-edited-by David Huron
%%abcx-initial-encoding-date August 27, 2000
%%humdrum-veritas 3244625470
%%humdrum-veritas-data 3216632158
%%linebreak <none>
%%barnumbers 0
L: 1/16
M: 2/4
Q: 1/4=52
K: Eb clef=bass
z4z3 A, | 
(3:2:4A,2 F,2 B, B, B,3 C | 
B,2> A,2 A,2 F, E, | 
A,2> E,2 F,2 F, z | 
E, E,2 E, E, E, E,2 | 
F,2 A,2 F,> F, F,3/ E,/ | 
E, E,2 E, E, E, E, z | 
E, E, E,2 _G, G,2 E,[M:7/8] | 
E, E,2 E, E,2 E, zE4E2[M:2/4] | 
E2 B, B,2< B,2 C | 
B,2> A,2 A,2 F, E, | 
A,2> E,2 F, F, F, z | 
E, E,2 E, E, E, E,2 | 
F,2 A,2 F,< F, F,3/ E,/ | 
E, E,2 E, E, E, E, z | 
E, E, E,2 _G,2 G,3/ E,/ | 
E, E,2 E, E,2 E, z |]  


